X: 80
T:Dublin Porter (Porter)
R:reel
C:traditional
S:Aidan Coffey
D:CD "Irlande" Track, Frankie Gavan, Arty McGlynn, Aidan Coffey in
Z:Horst, Christoph
Z:1
M:C|
L:1/8
K:D
F2 AF DFAF |~F2 AF EFDE| ~F2 dF cFBF | AFDF E2 DE|
~F2 AF DFAF| F2 AF EFDE|d3 A BAFB|1 AFEF D3 z:|2 AFEF D2 de||
~f2 df efdf| afdf eB B2| f2 df efdf| bfaf e2 fe|~f2 gf egfe| 
dfed BAFA|1 B3 d AFDF| EDEF D2 de:|2 ~B3 d AF ~F2| EDEFD3 z||
